X: 12061
T: Escape From Balto
R: jig
M: 6/8
K: Edorian
|:EFD E3|EGB BAG|F/G/AD D3|DFA AGF|
GEE AGF|GBe dcd|edc AFD|1 Bcd EGF:|2 Bcd EGA||
|:Bee Bdd|edc dBA|G3 EFG|F/G/AF DFA|
Bee Bdd|Bec d3|edB AFD|FGF EGA|
Bee Bdd|edc dBA|G3 EFG|F/G/AF DFA|
GEE AGF|GAB =c3|BAG AFD|Bcd EGF||

